X:1
T:Wach’ Auf
T:Composer Unknown
T:Wach’ Auf
T:Public Domain
C:Composer Unknown
Z:Public Domain
%%score ( 1 2 ) ( 3 4 )
L:1/8
M:4/4
K:F
V:1 treble 
V:2 treble 
V:3 bass 
V:4 bass 
V:1
 x8 |: F2 | [Dc]2 (DE) [FA]2 [FB]2 | [FA]2 [EG]2 [CF]2 [EG]2 | [FA]2 [F=B]2 [Ec]2 [Gd]2 | %5
 [Ge]2 (dc) [Gc]2 [G=B]2 | [Gc]6 :| [EG]2 [EG]2 [FA]2 [GB]2 | [GB]2 [Gc]2 [GB]2 [FA]2- x2 | %9
 [FA]2 [DG]6 | [Gc]2 [FA]2 [FB]2 [Gc]2 | [FA]2 [EA]2 [EG]2 [CF]2 | [CG]2 A2 [GB]2 [Ac]2 | %13
 [Ae]2 [Ad]2 (GF) [Ec]2- | [Ec]4 [Fc]2 [Fd]2 | [Fc]2 [FA]2 [FB]2 [Gc]2 | [FA]2 [EG]4 [CF]2- | %17
 [CF]8 |] %18
V:2
 x8 |: F2 | x2 B2 x4 | x8 | x8 | x2 A2 x4 | x6 :| x8 | x10 | x8 | x8 | x8 | x2 A2 x4 | x4 d2 x2 | %14
 x8 | x8 | x8 | x8 |] %18
V:3
 x8 |: [F,A,]2 | A,2 [G,B,]2 [F,C]2 [D,B,]2 | [C,C]2 (CB,) [F,A,]2 [C,C]2 | %4
 [F,C]2 [D,D]2 [A,C]2 [G,=B,]2 | [E,C]2 (FE) [G,D]2 [G,D]2 | [C,E]6 :| [C,C]2 (CB,) [A,C]2 [G,D]2 | %8
 [G,D]2 [C,_E]2 [G,D]2 D2 x2 | C2 [G,B,]6 | [E,C]2 [F,C]2 [D,D]2 [E,C]2 | %11
 [F,C]2 [C,C]2 [C,B,]2 [F,A,]2 | [E,C]2 [F,C]2 [E,E]2 [A,E]2 | [A,C]2 [F,C]2 [G,=B,]2 [C,C]2- | %14
 [C,C]4 [A,C]2 B,2 | [A,C]2 [F,C]2 [D,D]2 [E,C]2 | [F,C]2 (C2 B,2) [F,A,]2- | [F,A,]8 |] %18
V:4
 x8 |: x2 | A,2 x6 | x2 C,2 x4 | x8 | x2 F,2 x4 | x6 :| x2 C2 x4 | x6 D,4 | x8 | x8 | x8 | x8 | %13
 x8 | x6 B,2 | x8 | x2 C,4 x2 | x8 |] %18

